X:1
T:Fünf Gedichte für eine Frauenstimme (Wesendonck-Lieder)
T:Im Treibhaus
T:3. Im Treibhaus
T:Richard Wagner
T:Mathilde Wesendonck
T:Fünf Gedichte für eine Frauenstimme (Wesendonck-Lieder), WWV 91
T:OpenScore (CC0)
T:OpenScore (CC0)
T:OpenScore (CC0)
T:OpenScore (CC0)
C:Richard Wagner
Z:Mathilde Wesendonck
Z:OpenScore (CC0)
%%score 1 { ( 2 3 5 7 ) | ( 4 6 8 ) }
L:1/8
Q:1/4=50
M:6/8
K:F
V:1 treble nm="Voice"
V:2 treble nm="Piano"
V:3 treble 
V:5 treble 
V:7 treble 
V:4 bass 
V:6 bass 
V:8 bass 
V:1
"^Langsam und schwer" z2 z | z6 | z6 ||[M:9/8] z9 | z9 ||[M:6/8] A2 A B2 B | d2 A (AG) F || %7
w: |||||Hoch ge- wölb- te|Blät- ter kro- * nen,|
[M:9/8] z A G (FB) A z A d ||[M:6/8] e2 z (A2 A | B2 B B2 B |!<(! (B!<)!=B) c!p! ^c2 ^G) | %11
w: Bal- da- chi- * ne von Sma-|ragd, Kin- der|ihr aus fer- nen|Zo- * nen, sa- get|
 ^G2 G!<(! G2 A!<)! ||[M:9/8]!p!!>(! (_B3 A2)!>)! z z2 z ||[M:6/8] z2!p! z E2 F | G2 A B2 B || %15
w: mir wa- rum ihr|klagt? *|Schwei- gend|nei- get ihr die|
[M:9/8] d2 A B2 B ^c3/2 d/ c/ d/ ||[M:6/8]!p! f2 z z d d | _e2 e e2 e | _d2 d z ^c c | %19
w: Zwei- ge, ma- let Zei- chen in die|Luft, und der|Lei- den stum- mer|Zeu- ge, stei- get|
 ^c2 c (c^d) e |!p! ^f6 | z2 z !>!=B2 c | ^G3/2 G/ A/ =F/ =B2 c | z ^G A!<(! =B2 c | %24
w: auf- wärts sü- * sser|Duft.|Weit in|seh- nen- dem Ver- lan- gen|brei- tet ihr die|
 ^d2!<)! e A2 z | z6 |!mp! z E E E2 F | =G2 G ^G2 D | %28
w: Ar- me aus,||und um- schlin- get|wahn- be- fan- gen|
 F2[Q:1/4=45]"^T" F"^(streng im Takt)" ^G3/2 =B/ c/ A/ | e2 z z2 z |[Q:1/4=50]"^T" z2 z e2 A | %31
w: ö- der Lee- re nicht' gen|Graus.|Wohl, ich|
 B2 E z G3/2 A/ | G ^F z d2 z/ c/ | B2 z/ A/ G2 z/ =F/ | _E2 z z A A | =B2 c ^c2 d | %36
w: weiss es, ar- me|Pflan- ze: Ein Ge-|schi- cke tei- len|wir, ob um-|strahlt von Licht und|
 f2 _e z =c _A | d2 G z B z/ =A/ | G2 z z G G[Q:1/4=46]"^T" | G2 G G2 G | B2 D z D D | B2 B B2 G | %42
w: Glan- ze, uns- re|Hei- mat ist nicht|hier! Und wie|froh die Son- ne|schei- det von des|Ta- ges lee- rem|
 E2 z z E F | G2 G B2 G | G2 _E z E C | G2 _E E2 C | C2 z z2 z | z6 | A2 D D2 z | z6 | z2 D D2 D | %51
w: Schein, hül- let|der, der wahr- haft|lei- det, sich in|Schwei- gens Dun- kel|ein.||Stil- le    wird's,||ein säu- selnd|
 _E3 G2 z | z2 z D2 D | _E2 F G2 A ||[M:9/8] B2 z z2 z z2 z ||[M:6/8]!pp! (_A3-!<(! A2!<)! G | %56
w: We- ben|fül- let|bang den dunk- len|Raum:|schwe- * re|
 !wedge!^F) !wedge!^C z C2 C | ^C2 D z _E E | _E2 E E2 E | =E6 | z6[Q:1/4=50]"^T" | z6 | z6 || %63
w: Trop- fen seh' ich|schwe- ben an der|Blät- ter grü- nem|Saum.||||
[M:9/8] z9 ||[M:6/8] z6 | z6 | z6 |] %67
w: ||||
V:2
!p!!>(! z (EF | [EG]2!>)! [FA])!p!!>(! z (EF | [EG]2!>)! [FA])!p! z!>(! (EF || %3
[M:9/8] [EG]!>)![FA][G^c]!p! [Bd][ce][df] [e^g][fa][bd']) | [ae']3- [ae']2 z!p! z!>(! (EF || %5
[M:6/8] [EG]2!>)! [FA])!p! z!>(! (EF | [EG]2 [FA])!>)!!p! z (EF || %7
[M:9/8] [EG][FA][G^c]!p! [Bd][ce][df] [e^g][fa][bd']) ||[M:6/8] [ae']3!p!!<(! (fag | %9
 f^c!<)!d!p! _e!<(!_gf | _e=B!<)!c!p! ^c=e^d | ^c=c!<(!=B- B_B!<)!A) || %12
[M:9/8]!p!!>(! [Ge]3- [Ge]2!>)! z!p! z (EF ||[M:6/8] [EG]2 [FA]) z (EF | [EG]2 [FA]) z (EF || %15
[M:9/8] [EG][FA][G^c]!p! [Bd][ce][df] [e^g][fa][bd']) ||[M:6/8]!pp! [bf']3!p! (b!<(!d'c' | %17
 b^f!<)!g!p! _a!<(!_c'b | _a=e!<)!f!>(! ^f=a^g | ^f^e=e- e^d!>)!^c) |!pp! ^f6 | %21
!p! z!<(! (^GA!<)!!>(! =B2!>)! c) | z!<(! (^GA!<)!!>(! =B2 c)!>)! | z (^G"_cresc."A =B2 c) | %24
 (^d2 e!f! g2 ^f) | z (^CD E2 =F) |!mp! z (^CD E2 F) |!p! z (^CD [=CE][=B,F][D^G]) | %28
 ([FA][^G=B][Ac] [B^d][ce]/[=d^g]/[fa]/[^fc']/) |!pp! [ge']3- [ge']2 z |!p! [^CEG]6- | [CEG]6 | %32
 [=C^F]6 | z6 |!p!!<(! ([B,_EG]3 [A,DA]3 | [=B,=B]2 [Cc] [^C^c]2!<)! [Dd] | %36
!f! [Ff]2 [_E_e])"_dim." [E_Ac] z z | [DGB]2 z [C^FA]2 z |!p! [G,B,^CG]3- [G,B,CG]2 z | %39
 [G,B,^CG]3- [G,B,CG]2 z |!p! [B,DB]3- [B,DB]2 z | [B,DB]3- [B,DB]2 z |!p! [G,B,EG]3- [G,B,EG]2 z | %43
 [G,B,EG]3- [G,B,EG]2 z | [G,A,_EG]3- [G,A,EG]2 z | [G,C_EG]3- [G,CEG]2 z |!pp! (^F6 | _E6 | D6 | %49
!p! _E6 | D6 | _E6) |!ppp!"^trem." (!///-![A,D]3[I:staff +1] ^F,3 | %53
[I:staff -1] !///-![B,_E]3/2 G,3/2 !///-![EG]3/2 B,3/2) ||[M:9/8]!pp! z2 z (Bdc B^FG || %55
[M:6/8] _A_cB A=EF | ^F=A!<(!^G- G=G(F | ^F)=F!<)!!p!E) z (!wedge![D_E]2 | %58
 z!p! [D_E]2 z !wedge![DE]2) | z !wedge![D=E]2 z !wedge![DE]2 | %60
 z !wedge![DE]2 z!pp!"^a tempo" (EF | [EG]2 [FA]) z (EF | [EG]2 [FA]) z (EF || %63
[M:9/8] [EG]!p![FA][G^c] [Bd][ce][df] [e^g][fa][bd']) ||[M:6/8] [d'f']2 z!pp! [d'g']2 z | %65
 [d'a']2 z [da]2 z | [DA]2 z z2 z |] %67
V:3
 x D2 | A,3 x D2 | A,3 x (D2 ||[M:9/8] A,2) z x6 | x7 D2 ||[M:6/8] A,3 x D2 | A,3 x D2 || %7
[M:9/8] A,2 z x6 ||[M:6/8] x6 | x6 | x6 | x6 ||[M:9/8] x7 D2 ||[M:6/8] A,3 x D2 | A,3 x D2 || %15
[M:9/8] A,2 z x6 ||[M:6/8] x6 | x6 | x6 | x6 | (^c3 =B2 A) | x (=D=F) =G ^F2 | x =D=F =G ^F2 | %23
 x =D=F =G^FA | (G^FA c)"_dim." A2 | x3 =C=B,D | x3 =C=B,D | x (=G,B, ^G,2) z | x6 | x6 | x6 | x6 | %32
 x6 | x6 | x6 | [D^G]6 | [_Ac]3 x3 | x6 | x6 | x6 | x6 | x6 | x6 | x6 | x6 | x6 | (!///-!C3 A,3) | %47
 (!///-!B,3 G,3) | x6 | x6 | x6 | x6 | x6 | x6 ||[M:9/8] x9 ||[M:6/8] x6 | x6 | x6 | x6 | x6 | %60
 x3 x D2 | A,3 x D2 | A,3 x D2 ||[M:9/8] A,2 z x6 ||[M:6/8] x6 | x6 | x6 |] %67
V:4
 ([G,,D,B,]3 | [D,,D,]3) ([G,,D,B,]3 | [D,,D,]3) ([G,,D,B,]3 ||[M:9/8] [D,,D,]6-) [D,,D,] z z | %4
[K:treble] [A^c]3- [Ac]2 z[K:bass] ([G,,D,B,]3 ||[M:6/8] [D,,D,]3) ([G,,D,B,]3 | %6
 [D,,D,]3) ([G,,D,B,]3 ||[M:9/8] [D,,D,]6-) [D,,D,] z z ||[M:6/8][K:treble] ([A^c]3 [A=c]3 | %9
 [GB]3 [_GB]3 | [F_A]3 [=E^G]3 | [^D^F]3 [=D=F]3) || %12
[M:9/8][K:bass] [A,^C]3- [A,C]2 z ([G,,D,B,]3 ||[M:6/8] [D,,D,]3) ([G,,D,B,]3 | %14
 [D,,D,]3) ([G,,D,B,]3 ||[M:9/8] [D,,D,]6-) [D,,D,] z z ||[M:6/8][K:treble] ([Bd]3 [df]3 | %17
 [c_e]3 [_ce]3 | [B_d]3 [=A^c]3 | [^G=B]3 [^FA]3) |[K:bass] [=B,^D]6 | z (=B,2 A,3) | z =B,2 A,3 | %23
 z (=B,2 A,2 ^F,) | C3 ^D3 | z (E,2 D,2 =B,,) | z (E,2 D,2 =B,,) | z (E,2 D,2 =B,,) | z6 | %29
[K:treble] [_B^c]3- [Bc]2 z |[K:bass] [A,,G,]6- | [A,,G,]6 | [D,A,]6 | z6 | ([G,,G,]3 [F,,F,]3 | %35
 [E,,E,]6) |{/_E,,} [_E,_A,C]3 [C,,C,] z z | [D,,D,]2 z D,2 z | %38
 z"_(schleppend)" ([=E,,=E,][F,,F,] [G,,G,]2 [A,,A,]) | z ([E,,E,][F,,F,] [G,,G,]2 [A,,A,]) | %40
 z ([D,,D,][E,,E,] [F,,F,]2 [G,,G,]) | z ([D,,D,][E,,E,] [F,,F,]2 [G,,G,]) | %42
 z ([^C,,^C,][D,,D,] [E,,E,]2 [F,,F,]) | z ([^C,,^C,][D,,D,] [E,,E,]2 [F,,F,]) | %44
 z ([=C,,=C,][D,,D,] [_E,,_E,]2 [C,,C,]) | z ([A,,,A,,][B,,,B,,] [C,,C,]2 [A,,,A,,]) | %46
 [D,,,D,,]6- | [D,,,D,,]6- | (!///-!A,3 ^F,3) | (!///-!B,3 G,3) | (!///-!A,3 ^F,3) | %51
 (!///-!B,3 G,3) | [D,,D,]6- | [D,,D,] z z z3 ||[M:9/8][K:treble] (B3"^(gedehnt)" ([DF]3) [C_E]3 || %55
[M:6/8] ([_C_E]3)[K:bass] [B,_D]3 | [A,^C]3- [A,C]3 | [^G,=B,]3) [=G,_B,]3- | [G,B,]6- | [G,B,]6- | %60
 [G,B,]6 | [D,,D,]3 ([G,,D,B,]3 | [D,,D,]3) ([G,,D,B,]3 ||[M:9/8] [D,,D,]6-) [D,,D,] z z || %64
[M:6/8] z3[K:treble] [gb]2 z | [df]2 z [DF]2 z |[K:bass] [D,F,]2 z z2 z |] %67
V:5
 x3 | x6 | x6 ||[M:9/8] x9 | x9 ||[M:6/8] x6 | x6 ||[M:9/8] x9 ||[M:6/8] x6 | x6 | x6 | x6 || %12
[M:9/8] x9 ||[M:6/8] x6 | x6 ||[M:9/8] x9 ||[M:6/8] x6 | x6 | x6 | x6 | x6 | x3 ^D3 | x3 ^D3 | %23
 x3 ^D3 | x6 | x6 | x6 | x6 | x6 | x6 | x6 | x6 | x6 | x6 | x6 | x6 | x6 | x6 | x6 | x6 | x6 | x6 | %42
 x6 | x6 | x6 | x6 | x6 | x6 | x6 | x6 | x6 | x6 | x6 | x6 ||[M:9/8] x9 ||[M:6/8] x6 | x6 | x6 | %58
 x6 | x6 | x6 | x6 | x6 ||[M:9/8] x9 ||[M:6/8] x6 | x6 | x6 |] %67
V:6
 x3 | x6 | x6 ||[M:9/8] x9 |[K:treble] x6[K:bass] x3 ||[M:6/8] x6 | x6 ||[M:9/8] x9 || %8
[M:6/8][K:treble] x6 | x6 | x6 | x6 ||[M:9/8][K:bass] x9 ||[M:6/8] x6 | x6 ||[M:9/8] x9 || %16
[M:6/8][K:treble] x6 | x6 | x6 | x6 |[K:bass] x6 | (=F,2 D, =B,,3) | (=F,2 D, =B,,3) | %23
 =F,2 D, =B,,3- | B,, z z z2 z | (_B,,2 G,, E,,3) | (_B,,2 G,, E,,3) | (_B,,2 G,, E,,3-) | %28
 E,, z"^poco rall." z z2 z |[K:treble] x6 |[K:bass] x6 | x6 | x6 | x6 | x6 | x6 | x6 | x6 | x6 | %39
 x6 | x6 | x6 | x6 | x6 | x6 | x6 | x6 | x6 | [D,,,D,,]6 | %49
 z ([G,,,G,,][A,,,A,,] [B,,,B,,]2 [C,,C,]) | [D,,D,]6- | [D,,D,]6 | x6 | x6 || %54
[M:9/8][K:treble] [DF]3- x6 ||[M:6/8] x3[K:bass] x3 | x6 | x6 | x6 | x6 | x6 | x6 | x6 || %63
[M:9/8] x9 ||[M:6/8] x3[K:treble] x3 | x6 |[K:bass] x6 |] %67
V:7
 x3 | x6 | x6 ||[M:9/8] x9 | x9 ||[M:6/8] x6 | x6 ||[M:9/8] x9 ||[M:6/8] x6 | x6 | x6 | x6 || %12
[M:9/8] x9 ||[M:6/8] x6 | x6 ||[M:9/8] x9 ||[M:6/8] x6 | x6 | x6 | x6 | x6 | x6 | x6 | x6 | x6 | %25
 x G,B, x3 | x =G,B, x3 | x6 | x6 | x6 | x6 | x6 | x6 | x6 | x6 | x6 | x6 | x6 | x6 | x6 | x6 | %41
 x6 | x6 | x6 | x6 | x6 | x6 | x6 | x6 | x6 | x6 | x6 | x6 | x6 ||[M:9/8] x9 ||[M:6/8] x6 | x6 | %57
 x6 | x6 | x6 | x6 | x6 | x6 ||[M:9/8] x9 ||[M:6/8] x6 | x6 | x6 |] %67
V:8
 x3 | x6 | x6 ||[M:9/8] x9 |[K:treble] x6[K:bass] x3 ||[M:6/8] x6 | x6 ||[M:9/8] x9 || %8
[M:6/8][K:treble] x6 | x6 | x6 | x6 ||[M:9/8][K:bass] x9 ||[M:6/8] x6 | x6 ||[M:9/8] x9 || %16
[M:6/8][K:treble] x6 | x6 | x6 | x6 |[K:bass] x6 | x6 | x6 | x6 | x6 | x3 ^G,3 | x3 ^G,3 | x6 | %28
 x6 |[K:treble] x6 |[K:bass] x6 | x6 | x6 | x6 | x6 | x6 | x6 | x6 | x6 | x6 | x6 | x6 | x6 | x6 | %44
 x6 | x6 | x6 | x6 | x6 | x6 | x6 | x6 | x6 | x6 ||[M:9/8][K:treble] x9 ||[M:6/8] x3[K:bass] x3 | %56
 x6 | x6 | x6 | x6 | x6 | x6 | x6 ||[M:9/8] x9 ||[M:6/8] x3[K:treble] x3 | x6 |[K:bass] x6 |] %67

